X: 161
T: No_242_Song_of_Friendship_(c).krn
N: Derived from No_242_Song_of_Friendship_(c).krn
%%abc-version 2.0
%%abcx-abcm2ps-target-version 5.9.1 (29 Sep 2008)
%%abc-creator hum2abc beta
%%abcx-conversion-date 2019/03/15 08:38:45
%%humdrum-veritas 1616342245
%%humdrum-veritas-data 358193074
%%linebreak <none>
%%barnumbers 0
L: 1/8
M: 2/4
K: D clef=bass
[K:clef=bass][M:2/4]D,/D,3/A,2 ||  
[M:5/4]A,6F,2z2 ||  
[M:2/4]A,/A,3/F,2 ||  
[M:5/4]F,4-F,E,/D,/D,4 ||  
[M:2/4]F,/E,3/D,2 ||  
[M:3/4]D,2-D,3/B,,/B,,2 ||  
[M:2/4]D,/D,3/B,,2 ||  
[M:5/4]D,4-D,3/B,,/D,2z2 |]  



